X:12
T:Dinah's Jig
C:Bob McQuillen
S:Bernie Waugh
R:Jig
M:6/8
L:1/8
K:E Dor
|:E|\
"Em"B,EE GAB|"D"~ABA DEF|"Em"EGB "A"AGA|"Bm"Bdd d2E|
"Em"B,EE GAB|"D"~ABA DEF|"C"EGB AGF"Am"|GEE "Em"E2:|
|:B|\
"Em"eBe "G"dBd|"A"~cAc "Em"BGE|"Em"eBe "G"dBd|"A"~cAc "Bm"B2B|
"E"eBe "G"dBd|"A"~cAc "E"BGE|"C"eBA GFE"Am"|B,EE "Em"E2:|

